X: 212
T: Kempshot Hunt
R: reel
M: C|
L: 1/8
Z: 2011 John Chambers <jc:trillian.mit.edu>
B: Abraham Mackintosh "A Collection of Strathspeys, Reels, Jigs &c.", Newcastle, after 1797, p.21
F: http://imslp.info/files/imglnks/usimg/a/a8/IMSLP80796-PMLP164326-Abraham_Mackintosh_coll.pdf
K: A
V: 1
   f | e2ce {d}cB/A/ ce | ce d/c/B/A/ dBBd | ce d/c/B/A/ ceTe2 | cedf eAA :|
|: e | A/B/A ec fdec | A/B/A ec dBBc | A/B/A ec fded | cedf eAA :|
|: g | a2ec {g}a2ec | {g}a2ec dBBg | {g}a2ec a2ed | cedf eAA :|
V: 2 clef=bass middle=d
   z | a2a2 a2a2 | a2a2 e2e2 | a2a2 a2a2 | a2b2 c'2a :|
|: z | a2[c'2a2] [d'2a2][c'2a2] | c'2a2 e2e2 | A2c2 d2c2 | A2B2 c2A :|
|: z | [a2c'2][a2c'2] [a2c'2][a2c'2] | [a2c'2][a2c'2] [b2g2e2][b2g2e2] \
     | [a2c'2][a2c'2] [a2c'2][a2c'2] | a2b2 c'2a :|

%%sep 2 1 500

